src/Pure/16/symbolic/actions/mail-sent-symbolic-rtl.svg

<?xml version="1.0" encoding="UTF-8" standalone="no"?>
<svg
   width="16"
   height="15.974"
   enable-background="new"
   version="1.1"
   id="svg1"
   sodipodi:docname="mail-sent-symbolic-rtl.svg"
   inkscape:version="1.4.2 (ebf0e940d0, 2025-05-08)"
   xmlns:inkscape="http://www.inkscape.org/namespaces/inkscape"
   xmlns:sodipodi="http://sodipodi.sourceforge.net/DTD/sodipodi-0.dtd"
   xmlns="http://www.w3.org/2000/svg"
   xmlns:svg="http://www.w3.org/2000/svg">
  <defs
     id="defs1">
    <style
       id="current-color-scheme"
       type="text/css">
        .ColorScheme-Text { color:#363636; }
     </style>
  </defs>
  <sodipodi:namedview
     id="namedview1"
     pagecolor="#ffffff"
     bordercolor="#000000"
     borderopacity="0.25"
     inkscape:showpageshadow="2"
     inkscape:pageopacity="0.0"
     inkscape:pagecheckerboard="0"
     inkscape:deskcolor="#d1d1d1"
     inkscape:zoom="49.768374"
     inkscape:cx="8.007093"
     inkscape:cy="7.9869999"
     inkscape:window-width="1920"
     inkscape:window-height="1010"
     inkscape:window-x="0"
     inkscape:window-y="0"
     inkscape:window-maximized="1"
     inkscape:current-layer="svg1" />
  <path
     id="path1"
     style="fill:currentColor"
     class="ColorScheme-Text"
     d="m 1.6442819,1.1230469 a 0.50005,0.50005 0 0 1 0.033203,0.00391 0.50005,0.50005 0 0 1 0.015625,0 0.50005,0.50005 0 0 1 0.017578,0.00195 0.50005,0.50005 0 0 1 0.033204,0.00586 0.50005,0.50005 0 0 1 0.042968,0.00977 0.50005,0.50005 0 0 1 0.00977,0.00391 0.50005,0.50005 0 0 1 0.011719,0.00391 0.50005,0.50005 0 0 1 0.029297,0.013672 0.50005,0.50005 0 0 1 0.00391,0 L 14.570063,6.8242188 a 0.50005,0.50005 0 0 1 -0.0078,0.9140624 L 9.7966258,9.78125 7.753657,14.546875 a 0.50005,0.50005 0 0 1 -0.9160156,0.0078 L 1.1950629,1.8574219 a 0.50005,0.50005 0 0 1 -0.044921,-0.1269531 0.50005,0.50005 0 0 1 -0.00391,-0.015625 0.50005,0.50005 0 0 1 -0.00391,-0.03125 0.50005,0.50005 0 0 1 -0.00391,-0.042969 0.50005,0.50005 0 0 1 0,-0.00977 0.50005,0.50005 0 0 1 0,-0.015625 0.50005,0.50005 0 0 1 0.00195,-0.03125 0.50005,0.50005 0 0 1 0,-0.019531 0.50005,0.50005 0 0 1 0.00586,-0.033203 0.50005,0.50005 0 0 1 0.00391,-0.013672 0.50005,0.50005 0 0 1 0.00781,-0.033203 0.50005,0.50005 0 0 1 0.00586,-0.015625 0.50005,0.50005 0 0 1 0.00977,-0.03125 0.50005,0.50005 0 0 1 0.021484,-0.044922 0.50005,0.50005 0 0 1 0.015625,-0.03125 0.50005,0.50005 0 0 1 0.00977,-0.013672 0.50005,0.50005 0 0 1 0.00977,-0.011719 0.50005,0.50005 0 0 1 0.03125,-0.039063 0.50005,0.50005 0 0 1 0.035156,-0.037109 0.50005,0.50005 0 0 1 0.023437,-0.023437 0.50005,0.50005 0 0 1 0.048829,-0.033203 0.50005,0.50005 0 0 1 0.011718,-0.00781 0.50005,0.50005 0 0 1 0.03711,-0.019531 0.50005,0.50005 0 0 1 0.03125,-0.015625 0.50005,0.50005 0 0 1 0.046875,-0.015625 0.50005,0.50005 0 0 1 0.017578,-0.00586 0.50005,0.50005 0 0 1 0.037109,-0.00586 0.50005,0.50005 0 0 1 0.00977,-0.00391 0.50005,0.50005 0 0 1 0.033203,-0.00195 0.50005,0.50005 0 0 1 0.050781,-0.00391 z M 3.8962349,3.1738281 9.5290477,8.8085938 13.114985,7.2714844 Z M 3.1892039,3.8808594 7.2868601,13.099609 8.8220164,9.515625 Z" />
</svg>

<svg width="16" height="15.974" enable-background="new" version="1.1" xmlns="http://www.w3.org/2000/svg">
 <path d="m1.2942 1.2591a0.50005 0.50005 0 0 1 0.02486-0.022097 0.50005 0.50005 0 0 1 0.04834-0.034527 0.50005 0.50005 0 0 1 0.01243-0.00691 0.50005 0.50005 0 0 1 0.03729-0.020716 0.50005 0.50005 0 0 1 0.03038-0.013811 0.50005 0.50005 0 0 1 0.04696-0.016573 0.50005 0.50005 0 0 1 0.01657-0.00552 0.50005 0.50005 0 0 1 0.03729-0.00691 0.50005 0.50005 0 0 1 0.01105-0.00276 0.50005 0.50005 0 0 1 0.03315-0.00276 0.50005 0.50005 0 0 1 0.04972-0.00276 0.50005 0.50005 0 0 1 0.03315 0.00276 0.50005 0.50005 0 0 1 0.01657 0 0.50005 0.50005 0 0 1 0.01657 0.00276 0.50005 0.50005 0 0 1 0.03314 0.00552 0.50005 0.50005 0 0 1 0.04281 0.00967 0.50005 0.50005 0 0 1 0.0097 0.00414 0.50005 0.50005 0 0 1 0.01243 0.00414 0.50005 0.50005 0 0 1 0.029 0.01243 0.50005 0.50005 0 0 1 0.0041 0.00138l12.728 5.6569a0.50005 0.50005 0 0 1-0.0069 0.91565l-4.7661 2.0426-2.0426 4.7661a0.50005 0.50005 0 0 1-0.91565 0.0069l-5.643-12.698a0.50005 0.50005 0 0 1-0.04557-0.12568 0.50005 0.50005 0 0 1-0.0028-0.016573 0.50005 0.50005 0 0 1-0.0041-0.031765 0.50005 0.50005 0 0 1-0.0041-0.042813 0.50005 0.50005 0 0 1 0-0.00829 0.50005 0.50005 0 0 1 0-0.016573 0.50005 0.50005 0 0 1 0.0014-0.031764 0.50005 0.50005 0 0 1 0.0014-0.017954 0.50005 0.50005 0 0 1 0.0055-0.033146 0.50005 0.50005 0 0 1 0.0041-0.015192 0.50005 0.50005 0 0 1 0.0069-0.031765 0.50005 0.50005 0 0 1 0.0055-0.016573 0.50005 0.50005 0 0 1 0.01105-0.030384 0.50005 0.50005 0 0 1 0.02072-0.045575 0.50005 0.50005 0 0 1 0.01657-0.030383 0.50005 0.50005 0 0 1 0.0083-0.013811 0.50005 0.50005 0 0 1 0.0097-0.01243 0.50005 0.50005 0 0 1 0.03177-0.040051 0.50005 0.50005 0 0 1 0.03453-0.037289zm2.6006 1.9155 5.6334 5.6334 3.5853-1.5357zm-0.70711 0.70711 4.0976 9.2186 1.5357-3.5853z" color="#000000" color-rendering="auto" dominant-baseline="auto" enable-background="accumulate" fill="#363636" image-rendering="auto" shape-rendering="auto" solid-color="#000000" style="font-feature-settings:normal;font-variant-alternates:normal;font-variant-caps:normal;font-variant-ligatures:normal;font-variant-numeric:normal;font-variant-position:normal;isolation:auto;mix-blend-mode:normal;shape-padding:0;text-decoration-color:#000000;text-decoration-line:none;text-decoration-style:solid;text-indent:0;text-orientation:mixed;text-transform:none;white-space:normal"/>
</svg>
